shy.svg

<svg clip-rule="evenodd" fill-rule="evenodd" stroke-linejoin="round" stroke-miterlimit="2" viewBox="0 0 261 92" xmlns="http://www.w3.org/2000/svg" xmlns:xlink="http://www.w3.org/1999/xlink"><linearGradient id="a"><stop offset="0" stop-color="#ffb300"/><stop offset=".13" stop-color="#ffb300"/><stop offset=".65" stop-color="#ffca28"/><stop offset="1" stop-color="#ffca28"/></linearGradient><linearGradient id="b" gradientTransform="matrix(116.6 -.244312 .244312 116.6 5.74155 64.1643)" gradientUnits="userSpaceOnUse" x1="0" x2="1" xlink:href="#a" y1="0" y2="0"/><linearGradient id="c" gradientTransform="matrix(-116.6 -.244312 .244312 -116.6 122.255 64.1731)" gradientUnits="userSpaceOnUse" x1="0" x2="1" xlink:href="#a" y1="0" y2="0"/><g fill-rule="nonzero"><g transform="translate(136.31 -18.33)"><path d="m78.23 108.17c-15.57 0-24.59-.54-26.8-1.59-5.12-2.45-5.57-7.65-4.98-9.79.75-2.73-1.77-5.1-2.89-5.99-1.06-.85-2.5-2.25-3.31-4.14-1-2.34-1.19-4.5-.56-6.43.73-2.22.03-4.72-1.74-6.23-2.35-2-4.76-5.65-2.94-11.71.14-.46.05-.95-.23-1.33s-.73-.6-1.2-.6l-19.59.04c-2.61 0-8.34-2.21-8.34-8.79 0-5.59 5.92-6.85 7.99-6.85l57.07-.12c.82 0 1.48-.66 1.5-1.48.01-.82-.63-1.5-1.45-1.52-.03-.01-1.79-.25-8.53-4.13-6.71-3.88-10.73-7.76-8.48-14.1 1.15-3.23 4.8-3.58 6.31-3.58 1.92 0 3.52.49 4.2.94 5.37 3.58 10.57 5.69 16.08 7.93 5.82 2.36 11.85 4.8 18.69 9.25 1.27.83 2.4 1.85 3.33 3.04 4.37 5.55 10.05 9.27 16.42 10.75l1.29.3c1.12.26 1.92 1.25 1.93 2.41l.34 39.69c.01 1.13-.73 2.13-1.82 2.44-.09.02-.17.06-.25.1-.24.11-23.68 11.46-40.13 11.49z" fill="url(#b)"/><g fill="#eda600"><path d="m60.06 21.33c1.76 0 3.03.46 3.37.69 5.5 3.67 10.77 5.81 16.35 8.07 5.76 2.34 11.71 4.75 18.44 9.12 1.14.74 2.14 1.65 2.97 2.71 4.59 5.82 10.55 9.72 17.25 11.29l1.29.3c.45.1.77.5.77.96l.35 39.7c.01.45-.29.85-.73.97-.17.05-.34.11-.5.19-.23.11-23.36 11.31-39.47 11.34h-1.91c-20.14 0-25.04-.91-26.17-1.45-4.22-2.02-4.64-6.36-4.18-8.04.69-2.53-.55-5.28-3.41-7.56-.93-.74-2.18-1.96-2.86-3.55-.85-2-1.03-3.8-.51-5.37.93-2.84.07-5.91-2.19-7.84-2.92-2.49-3.75-5.9-2.48-10.14.27-.91.1-1.89-.47-2.66-.57-.76-1.46-1.21-2.41-1.21h-.01l-19.58.04c-1.36 0-6.84-1.3-6.84-7.29 0-5.12 6.43-5.35 6.5-5.35l57.05-.12h.03c.08 0 .16 0 .24-.01 1.61-.12 2.82-1.5 2.76-3.11-.06-1.51-1.25-2.73-2.73-2.87-.3-.07-2.25-.62-8.01-3.95-8.42-4.86-9.23-8.31-7.81-12.3.8-2.22 3.42-2.56 4.9-2.56m0-3c-3.09 0-6.51 1.14-7.73 4.58-2.23 6.28.58 10.96 9.14 15.9 7.14 4.12 8.99 4.33 9.23 4.33h.03-.02l-57.07.12c-3.15 0-9.49 2-9.49 8.35 0 7.67 6.67 10.29 9.84 10.29l19.59-.04c-2.09 6.96.88 11.13 3.4 13.28 1.32 1.13 1.82 2.97 1.28 4.62-.57 1.74-.77 4.26.61 7.48.9 2.1 2.43 3.67 3.75 4.72s2.83 2.8 2.38 4.42c-.81 2.98.16 8.85 5.78 11.54 3.16 1.51 16.28 1.74 27.47 1.74h1.92c17-.04 40.78-11.64 40.78-11.64 1.74-.49 2.93-2.09 2.91-3.89l-.35-39.69c-.02-1.84-1.3-3.43-3.09-3.85l-1.29-.3c-6.24-1.45-11.61-5.19-15.58-10.22-.94-1.19-2.15-2.36-3.69-3.37-13.46-8.74-23.88-9.92-34.76-17.17-1.02-.68-2.95-1.2-5.04-1.2z"/><path d="m53.71 59.36-21.17-.46 1.7 2.45c0 .59.77 1.04 1.65.97l17.84-.77c1.78-.14 1.76-2.1-.02-2.19z"/><path d="m78.73 43.2-6.97-2.81-2.47-.94.87 3.32.94 3.23 7.48-.09c1.38.01 1.24-2.15.15-2.71z"/><path d="m54.11 76.47-13.07-.77c-.59-.05-.25 2.52-.25 2.52 0 .59.53 1.04 1.13.97l12.23-.77c1.21-.13 1.18-1.85-.04-1.95z"/><path d="m53.88 93.1-7.04-.77c-.32-.05-.13 2.52-.13 2.52 0 .59.28 1.04.61.97l6.58-.77c.65-.14.63-1.86-.02-1.95z"/></g></g><g transform="translate(-4.14 -18.33)"><path d="m47.84 108.17c-16.46-.04-39.89-11.38-40.13-11.5-.08-.04-.16-.07-.25-.1-1.08-.31-1.83-1.31-1.82-2.43l.34-39.7c.02-1.14.82-2.13 1.94-2.4l1.29-.3c6.37-1.48 12.04-5.2 16.42-10.75.94-1.19 2.06-2.21 3.33-3.04 6.85-4.44 12.87-6.89 18.69-9.25 5.51-2.23 10.71-4.34 16.08-7.93.68-.45 2.28-.94 4.2-.94 1.52 0 5.17.35 6.31 3.58 2.25 6.34-1.76 10.22-8.48 14.1-6.73 3.89-8.5 4.13-8.57 4.14-.82.03-1.44.7-1.43 1.52s.7 1.47 1.52 1.48l57.07.12c2.08 0 7.99 1.26 7.99 6.85 0 6.58-5.73 8.79-8.34 8.79 0 0-19.58-.04-19.59-.04-.47 0-.92.22-1.2.6s-.37.87-.23 1.33c1.82 6.06-.59 9.71-2.94 11.71-1.77 1.5-2.46 4.01-1.74 6.23.63 1.92.44 4.09-.56 6.43-.81 1.89-2.24 3.29-3.31 4.14-1.12.89-3.64 3.26-2.89 5.99.59 2.14.14 7.34-4.98 9.79-2.21 1.06-11.23 1.59-26.8 1.59z" fill="url(#c)"/><g fill="#eda600"><path d="m67.94 21.33c1.49 0 4.1.34 4.9 2.58 1.42 3.99.6 7.44-7.81 12.3-5.67 3.27-7.65 3.86-8 3.94-1.5.12-2.7 1.34-2.76 2.87-.06 1.61 1.16 2.99 2.77 3.11.08.01.16.01.24.01h.03l57.05.12c.06 0 6.49.23 6.49 5.35 0 5.99-5.48 7.29-6.83 7.29l-19.59-.04h-.01c-.95 0-1.84.45-2.41 1.21s-.74 1.75-.47 2.66c1.27 4.24.44 7.65-2.48 10.14-2.26 1.92-3.12 5-2.19 7.84.51 1.57.34 3.37-.51 5.37-.68 1.6-1.93 2.81-2.86 3.55-2.86 2.28-4.1 5.03-3.41 7.56.46 1.67.04 6.02-4.18 8.04-1.13.54-6.04 1.45-26.17 1.45h-1.91c-16.08-.05-39.23-11.24-39.46-11.35-.16-.08-.33-.14-.5-.19-.43-.12-.73-.52-.73-.98l.35-39.69c.01-.46.32-.86.77-.96l1.29-.3c6.7-1.56 12.67-5.46 17.25-11.29.84-1.06 1.83-1.97 2.97-2.71 6.73-4.37 12.68-6.78 18.44-9.12 5.58-2.26 10.85-4.4 16.35-8.07.34-.22 1.61-.69 3.38-.69m0-3c-2.08 0-4.02.52-5.03 1.19-10.88 7.26-21.3 8.43-34.76 17.17-1.55 1.01-2.75 2.18-3.69 3.37-3.96 5.03-9.34 8.77-15.58 10.22l-1.29.3c-1.8.42-3.08 2.01-3.1 3.86l-.35 39.69c-.02 1.81 1.17 3.4 2.91 3.89 0 0 23.79 11.61 40.78 11.64h1.92c11.18 0 24.3-.23 27.47-1.74 5.63-2.69 6.6-8.56 5.78-11.54-.44-1.62 1.06-3.37 2.38-4.42s2.85-2.62 3.75-4.72c1.38-3.22 1.17-5.75.61-7.48-.54-1.65-.04-3.49 1.28-4.62 2.52-2.15 5.5-6.32 3.4-13.28l19.59.04c3.17 0 9.84-2.62 9.84-10.29 0-6.34-6.34-8.35-9.49-8.35l-57.06-.11h-.02.03c.24-.01 2.09-.21 9.23-4.33 8.56-4.94 11.37-9.62 9.14-15.9-1.24-3.45-4.65-4.59-7.74-4.59z"/><path d="m74.29 59.36 21.16-.46-1.7 2.45c0 .59-.77 1.04-1.65.97l-17.84-.77c-1.77-.14-1.75-2.1.03-2.19z"/><path d="m49.27 43.2 6.97-2.81 2.47-.94-.87 3.32-.94 3.23-7.48-.09c-1.38.01-1.24-2.15-.15-2.71z"/><path d="m73.89 76.47 13.07-.77c.59-.05.25 2.52.25 2.52 0 .59-.53 1.04-1.13.97l-12.23-.77c-1.21-.13-1.18-1.85.04-1.95z"/><path d="m74.12 93.1 7.04-.77c.32-.05.13 2.52.13 2.52 0 .59-.28 1.04-.61.97l-6.58-.77c-.65-.14-.63-1.86.02-1.95z"/></g></g></g></svg>

<svg xmlns="http://www.w3.org/2000/svg" fill-rule="evenodd" stroke-linejoin="round" stroke-miterlimit="2" clip-rule="evenodd" viewBox="0 0 261 92"><path fill="url(#_Linear1)" fill-rule="nonzero" d="M78.23,108.17C62.66,108.17 53.64,107.63 51.43,106.58C46.31,104.13 45.86,98.93 46.45,96.79C47.2,94.06 44.68,91.69 43.56,90.8C42.5,89.95 41.06,88.55 40.25,86.66C39.25,84.32 39.06,82.16 39.69,80.23C40.42,78.01 39.72,75.51 37.95,74C35.6,72 33.19,68.35 35.01,62.29C35.15,61.83 35.06,61.34 34.78,60.96C34.5,60.58 34.05,60.36 33.58,60.36L13.99,60.4C11.38,60.4 5.65,58.19 5.65,51.61C5.65,46.02 11.57,44.76 13.64,44.76L70.71,44.64C71.53,44.64 72.19,43.98 72.21,43.16C72.22,42.34 71.58,41.66 70.76,41.64C70.73,41.63 68.97,41.39 62.23,37.51C55.52,33.63 51.5,29.75 53.75,23.41C54.9,20.18 58.55,19.83 60.06,19.83C61.98,19.83 63.58,20.32 64.26,20.77C69.63,24.35 74.83,26.46 80.34,28.7C86.16,31.06 92.19,33.5 99.03,37.95C100.3,38.78 101.43,39.8 102.36,40.99C106.73,46.54 112.41,50.26 118.78,51.74L120.07,52.04C121.19,52.3 121.99,53.29 122,54.45L122.34,94.14C122.35,95.27 121.61,96.27 120.52,96.58C120.43,96.6 120.35,96.64 120.27,96.68C120.03,96.79 96.59,108.14 80.14,108.17L78.23,108.17Z" transform="matrix(1,0,0,1,-434.79,-254.335) matrix(1,0,0,1,0,100.471) matrix(1,0,0,1,571.1,135.534)"/><path fill="#eda600" fill-rule="nonzero" d="M60.06,21.33C61.82,21.33 63.09,21.79 63.43,22.02C68.93,25.69 74.2,27.83 79.78,30.09C85.54,32.43 91.49,34.84 98.22,39.21C99.36,39.95 100.36,40.86 101.19,41.92C105.78,47.74 111.74,51.64 118.44,53.21L119.73,53.51C120.18,53.61 120.5,54.01 120.5,54.47L120.85,94.17C120.86,94.62 120.56,95.02 120.12,95.14C119.95,95.19 119.78,95.25 119.62,95.33C119.39,95.44 96.26,106.64 80.15,106.67L78.24,106.67C58.1,106.67 53.2,105.76 52.07,105.22C47.85,103.2 47.43,98.86 47.89,97.18C48.58,94.65 47.34,91.9 44.48,89.62C43.55,88.88 42.3,87.66 41.62,86.07C40.77,84.07 40.59,82.27 41.11,80.7C42.04,77.86 41.18,74.79 38.92,72.86C36,70.37 35.17,66.96 36.44,62.72C36.71,61.81 36.54,60.83 35.97,60.06C35.4,59.3 34.51,58.85 33.56,58.85L33.55,58.85L13.97,58.89C12.61,58.89 7.13,57.59 7.13,51.6C7.13,46.48 13.56,46.25 13.63,46.25L70.68,46.13L70.71,46.13C70.79,46.13 70.87,46.13 70.95,46.12C72.56,46 73.77,44.62 73.71,43.01C73.65,41.5 72.46,40.28 70.98,40.14C70.68,40.07 68.73,39.52 62.97,36.19C54.55,31.33 53.74,27.88 55.16,23.89C55.96,21.67 58.58,21.33 60.06,21.33M60.06,18.33C56.97,18.33 53.55,19.47 52.33,22.91C50.1,29.19 52.91,33.87 61.47,38.81C68.61,42.93 70.46,43.14 70.7,43.14L70.73,43.14L70.71,43.14L13.64,43.26C10.49,43.26 4.15,45.26 4.15,51.61C4.15,59.28 10.82,61.9 13.99,61.9L33.58,61.86C31.49,68.82 34.46,72.99 36.98,75.14C38.3,76.27 38.8,78.11 38.26,79.76C37.69,81.5 37.49,84.02 38.87,87.24C39.77,89.34 41.3,90.91 42.62,91.96C43.94,93.01 45.45,94.76 45,96.38C44.19,99.36 45.16,105.23 50.78,107.92C53.94,109.43 67.06,109.66 78.25,109.66L80.17,109.66C97.17,109.62 120.95,98.02 120.95,98.02C122.69,97.53 123.88,95.93 123.86,94.13L123.51,54.44C123.49,52.6 122.21,51.01 120.42,50.59L119.13,50.29C112.89,48.84 107.52,45.1 103.55,40.07C102.61,38.88 101.4,37.71 99.86,36.7C86.4,27.96 75.98,26.78 65.1,19.53C64.08,18.85 62.15,18.33 60.06,18.33Z" transform="matrix(1,0,0,1,-434.79,-254.335) matrix(1,0,0,1,0,100.471) matrix(1,0,0,1,571.1,135.534)"/><path fill="#eda600" fill-rule="nonzero" d="M53.71,59.36L32.54,58.9L34.24,61.35C34.24,61.94 35.01,62.39 35.89,62.32L53.73,61.55C55.51,61.41 55.49,59.45 53.71,59.36Z" transform="matrix(1,0,0,1,-434.79,-254.335) matrix(1,0,0,1,0,100.471) matrix(1,0,0,1,571.1,135.534)"/><path fill="#eda600" fill-rule="nonzero" d="M78.73,43.2L71.76,40.39L69.29,39.45L70.16,42.77L71.1,46L78.58,45.91C79.96,45.92 79.82,43.76 78.73,43.2Z" transform="matrix(1,0,0,1,-434.79,-254.335) matrix(1,0,0,1,0,100.471) matrix(1,0,0,1,571.1,135.534)"/><path fill="#eda600" fill-rule="nonzero" d="M54.11,76.47L41.04,75.7C40.45,75.65 40.79,78.22 40.79,78.22C40.79,78.81 41.32,79.26 41.92,79.19L54.15,78.42C55.36,78.29 55.33,76.57 54.11,76.47Z" transform="matrix(1,0,0,1,-434.79,-254.335) matrix(1,0,0,1,0,100.471) matrix(1,0,0,1,571.1,135.534)"/><path fill="#eda600" fill-rule="nonzero" d="M53.88,93.1L46.84,92.33C46.52,92.28 46.71,94.85 46.71,94.85C46.71,95.44 46.99,95.89 47.32,95.82L53.9,95.05C54.55,94.91 54.53,93.19 53.88,93.1Z" transform="matrix(1,0,0,1,-434.79,-254.335) matrix(1,0,0,1,0,100.471) matrix(1,0,0,1,571.1,135.534)"/><g fill-rule="nonzero"><path fill="url(#_Linear2)" d="M47.84,108.17C31.38,108.13 7.95,96.79 7.71,96.67C7.63,96.63 7.55,96.6 7.46,96.57C6.38,96.26 5.63,95.26 5.64,94.14L5.98,54.44C6,53.3 6.8,52.31 7.92,52.04L9.21,51.74C15.58,50.26 21.25,46.54 25.63,40.99C26.57,39.8 27.69,38.78 28.96,37.95C35.81,33.51 41.83,31.06 47.65,28.7C53.16,26.47 58.36,24.36 63.73,20.77C64.41,20.32 66.01,19.83 67.93,19.83C69.45,19.83 73.1,20.18 74.24,23.41C76.49,29.75 72.48,33.63 65.76,37.51C59.03,41.4 57.26,41.64 57.19,41.65C56.37,41.68 55.75,42.35 55.76,43.17C55.77,43.99 56.46,44.64 57.28,44.65L114.35,44.77C116.43,44.77 122.34,46.03 122.34,51.62C122.34,58.2 116.61,60.41 114,60.41C114,60.41 94.42,60.37 94.41,60.37C93.94,60.37 93.49,60.59 93.21,60.97C92.93,61.35 92.84,61.84 92.98,62.3C94.8,68.36 92.39,72.01 90.04,74.01C88.27,75.51 87.58,78.02 88.3,80.24C88.93,82.16 88.74,84.33 87.74,86.67C86.93,88.56 85.5,89.96 84.43,90.81C83.31,91.7 80.79,94.07 81.54,96.8C82.13,98.94 81.68,104.14 76.56,106.59C74.35,107.65 65.33,108.18 49.76,108.18L47.84,108.17Z" transform="matrix(1,0,0,1,-434.79,-254.335) matrix(1,0,0,1,430.65,236.005)"/><path fill="#eda600" d="M67.94,21.33C69.43,21.33 72.04,21.67 72.84,23.91C74.26,27.9 73.44,31.35 65.03,36.21C59.36,39.48 57.38,40.07 57.03,40.15C55.53,40.27 54.33,41.49 54.27,43.02C54.21,44.63 55.43,46.01 57.04,46.13C57.12,46.14 57.2,46.14 57.28,46.14L57.31,46.14L114.36,46.26C114.42,46.26 120.85,46.49 120.85,51.61C120.85,57.6 115.37,58.9 114.02,58.9L94.43,58.86L94.42,58.86C93.47,58.86 92.58,59.31 92.01,60.07C91.44,60.83 91.27,61.82 91.54,62.73C92.81,66.97 91.98,70.38 89.06,72.87C86.8,74.79 85.94,77.87 86.87,80.71C87.38,82.28 87.21,84.08 86.36,86.08C85.68,87.68 84.43,88.89 83.5,89.63C80.64,91.91 79.4,94.66 80.09,97.19C80.55,98.86 80.13,103.21 75.91,105.23C74.78,105.77 69.87,106.68 49.74,106.68L47.83,106.68C31.75,106.63 8.6,95.44 8.37,95.33C8.21,95.25 8.04,95.19 7.87,95.14C7.44,95.02 7.14,94.62 7.14,94.16L7.49,54.47C7.5,54.01 7.81,53.61 8.26,53.51L9.55,53.21C16.25,51.65 22.22,47.75 26.8,41.92C27.64,40.86 28.63,39.95 29.77,39.21C36.5,34.84 42.45,32.43 48.21,30.09C53.79,27.83 59.06,25.69 64.56,22.02C64.9,21.8 66.17,21.33 67.94,21.33M67.94,18.33C65.86,18.33 63.92,18.85 62.91,19.52C52.03,26.78 41.61,27.95 28.15,36.69C26.6,37.7 25.4,38.87 24.46,40.06C20.5,45.09 15.12,48.83 8.88,50.28L7.59,50.58C5.79,51 4.51,52.59 4.49,54.44L4.14,94.13C4.12,95.94 5.31,97.53 7.05,98.02C7.05,98.02 30.84,109.63 47.83,109.66L49.75,109.66C60.93,109.66 74.05,109.43 77.22,107.92C82.85,105.23 83.82,99.36 83,96.38C82.56,94.76 84.06,93.01 85.38,91.96C86.7,90.91 88.23,89.34 89.13,87.24C90.51,84.02 90.3,81.49 89.74,79.76C89.2,78.11 89.7,76.27 91.02,75.14C93.54,72.99 96.52,68.82 94.42,61.86L114.01,61.9C117.18,61.9 123.85,59.28 123.85,51.61C123.85,45.27 117.51,43.26 114.36,43.26L57.3,43.15L57.28,43.15L57.31,43.15C57.55,43.14 59.4,42.94 66.54,38.82C75.1,33.88 77.91,29.2 75.68,22.92C74.44,19.47 71.03,18.33 67.94,18.33Z" transform="matrix(1,0,0,1,-434.79,-254.335) matrix(1,0,0,1,430.65,236.005)"/><path fill="#eda600" d="M74.29,59.36L95.45,58.9L93.75,61.35C93.75,61.94 92.98,62.39 92.1,62.32L74.26,61.55C72.49,61.41 72.51,59.45 74.29,59.36Z" transform="matrix(1,0,0,1,-434.79,-254.335) matrix(1,0,0,1,430.65,236.005)"/><path fill="#eda600" d="M49.27,43.2L56.24,40.39L58.71,39.45L57.84,42.77L56.9,46L49.42,45.91C48.04,45.92 48.18,43.76 49.27,43.2Z" transform="matrix(1,0,0,1,-434.79,-254.335) matrix(1,0,0,1,430.65,236.005)"/><path fill="#eda600" d="M73.89,76.47L86.96,75.7C87.55,75.65 87.21,78.22 87.21,78.22C87.21,78.81 86.68,79.26 86.08,79.19L73.85,78.42C72.64,78.29 72.67,76.57 73.89,76.47Z" transform="matrix(1,0,0,1,-434.79,-254.335) matrix(1,0,0,1,430.65,236.005)"/><path fill="#eda600" d="M74.12,93.1L81.16,92.33C81.48,92.28 81.29,94.85 81.29,94.85C81.29,95.44 81.01,95.89 80.68,95.82L74.1,95.05C73.45,94.91 73.47,93.19 74.12,93.1Z" transform="matrix(1,0,0,1,-434.79,-254.335) matrix(1,0,0,1,430.65,236.005)"/></g><defs><linearGradient id="_Linear1" x1="0" x2="1" y1="0" y2="0" gradientTransform="matrix(116.6,-0.244312,0.244312,116.6,5.74155,64.1643)" gradientUnits="userSpaceOnUse"><stop offset="0" stop-color="#ffb300"/><stop offset=".13" stop-color="#ffb300"/><stop offset=".65" stop-color="#ffca28"/><stop offset="1" stop-color="#ffca28"/></linearGradient><linearGradient id="_Linear2" x1="0" x2="1" y1="0" y2="0" gradientTransform="matrix(-116.6,-0.244312,0.244312,-116.6,122.255,64.1731)" gradientUnits="userSpaceOnUse"><stop offset="0" stop-color="#ffb300"/><stop offset=".13" stop-color="#ffb300"/><stop offset=".65" stop-color="#ffca28"/><stop offset="1" stop-color="#ffca28"/></linearGradient></defs></svg>
